X: 1
T: Our House At Home
M: 4/4
L: 1/8
R: reel
K: Gmaj
d2 cA BG ~G2|AGFG ABcd|d2 cA BGGg|fdcA G4:|
fede fgaf|dg ~g2 dg ~g2|1fede fgaf|bfaf ~g4:|2d2 cA BGGg|fdcA G4||
